X:22
T:The Mill dams of Binnorie
Z:Jack Campin, http://www.campin.me.uk/
F:Jack Campin's Nine-Note Tunebook
% last edit 03-02-2013
S:Blaikie MS (NLS MS.1578) p21
N:Blaikie #64
M:2/4
L:1/8
Q:1/4=72
K:F
G|cc/d/ cG|cc/d/ cB|A>G``````FA   |GF D2|
  DC/D/ FF|DC/D/ FA|C/C/C/D/ FA/G/|F2 C|]

